!!!COM: Palestrina, Giovanni Perluigi da
!!!OPR: Missa In festis Apostolorum (I)
!!!OMD: Credo
!!!OTL: First Section
**kern	**kern	**kern	**kern	**kern
*Ibass	*Itenor	*Itenor	*Icalto	*Icant
!Bassus	!Tenor 2	!Tenor 1	!Altus	!Cantus
*clefF4	*clefGv2	*clefGv2	*clefG2	*clefG2
*k[]	*k[]	*k[]	*k[]	*k[]
*D:dor	*D:dor	*D:dor	*D:dor	*D:dor
*M4/2	*M4/2	*M4/2	*M4/2	*M4/2
=1	=1	=1	=1	=1
0r	1E	0r	0r	0r
.	2G	.	.	.
.	2A	.	.	.
=2	=2	=2	=2	=2
0r	2B	0r	0r	2r
.	2.c	.	.	2e
.	.	.	.	2g
.	4B	.	.	.
.	2A	.	.	2a
=3	=3	=3	=3	=3
0r	2G#	0r	2r	2b
.	2.A	.	2A	2.cc
.	.	.	2c	.
.	4G	.	.	4b
.	2F	.	2d	2a
=4	=4	=4	=4	=4
0r	2E	2r	2e	2g#
.	2D	2A	2f	1a
.	2A	2c	2e	.
.	2B	2d	[2d	2g#
=5	=5	=5	=5	=5
1r	1A	1e	4d]	0a
.	.	.	4c#	.
.	.	.	2c#	.
2r	1r	2f	2d	.
2AA	.	[2e	[2c	.
=6	=6	=6	=6	=6
2C	1r	2e]	4c]	0r
.	.	.	4B	.
2D	.	4d	1A	.
.	.	4c	.	.
1E	2.e	1B	.	.
.	.	.	2G#	.
.	4d	.	.	.
=7	=7	=7	=7	=7
1F	4c	2.A	4A	0r
.	4B	.	4B	.
.	2A	.	4c	.
.	.	4B	4d	.
2E	2G	2c	2e	.
[2D	2F	2d	2f	.
=8	=8	=8	=8	=8
2D]	1E	1e	1g	1r
2C#	.	.	.	.
1D	1D	1A	1f	1a
=9	=9	=9	=9	=9
1r	0r	2r	1e	2b
.	.	1A	.	2.cc
2r	.	.	2f	.
.	.	.	.	4cc
[2E	.	2B	[2g	2b
=10	=10	=10	=10	=10
2E]	1r	1.c	2g]	2g
2F	.	.	2f	2a
1G	2r	.	2e	1g
.	2B	2B	[2d	.
=11	=11	=11	=11	=11
2F	1c	2A	4d]	0r
.	.	.	4c	.
2E	.	2.G	2c	.
2.D	1d	.	2B	.
.	.	8F	.	.
.	.	8E	.	.
.	.	4F	[2A	.
4E	.	4G	.	.
=12	=12	=12	=12	=12
2F	2c	2A	2A]	0r
2G	2B	1G	1d	.
1D	2A	.	.	.
.	2A	2F#	2d	.
=13	=13	=13	=13	=13
2r	2G	1G	2d	1b
2G	2d	.	1g	.
1A	1c	1r	.	1cc
.	.	.	2f#	.
=14	=14	=14	=14	=14
1G	1.d	2.B	2g	1b
.	.	.	2G	.
.	.	4c	.	.
2F	.	2d	2A	2a
[2G	2d	2B	2G	[2b
=15	=15	=15	=15	=15
2G]	2B	2G	1d	2b]
2F	2d	2A	.	1a
1E	1e	2B	2r	.
.	.	2B	2e	2g#
=16	=16	=16	=16	=16
1D	2r	1d	1f	2.a
.	1A	.	.	.
.	.	.	.	4b
1E	.	2r	[1e	2cc
.	2G#	2B	.	2b
=17	=17	=17	=17	=17
2r	2.A	1c	1e]	1a
1A	.	.	.	.
.	4A	.	.	.
.	2E	2.B	1e	2r
2G#	2E	.	.	2b
.	.	4B	.	.
=18	=18	=18	=18	=18
2A	2A	2A	[0e	2cc
2E	2B	2G#	.	2b
2AA	2c	2A	.	2a
2E	2B	4G	.	[2b
.	.	4F	.	.
=19	=19	=19	=19	=19
2.C	1c	[0E	1e]	2b]
.	.	.	.	1a
4D	.	.	.	.
1E	2.B	.	1e	.
.	.	.	.	2g#
.	4B	.	.	.
=20	=20	=20	=20	=20
[0AA	[0A	1E_	[0c#	[0a
.	.	1E_	.	.
=21	=21	=21	=21	=21
0AA]	0A]	0E]	0c#]	0a]
*-	*-	*-	*-	*-
!!!CDT: 1525/^1526/-1594/2/2
!!!OCY: Italia
!!!AGN: Mass (Paraphrase)
!!!AST: renaissance, vocal
!!!ASW: Gregorian Mass
!!!PWK: Masses, Book Mantuan II
!!!RNB: Cadence finals: A,E
!!!YOR: Le Opere Complete, v. 19, p. 43
!!!YOO: Rome, Italy: Fratelli Scalera
!!!END: 1992//
!!!EED: John Miller
!!!YEC: Copyright 2000, John Miller
!!!YEN: United States of America
!!!YEM: Rights to all derivative electronic formats reserved.
!!!YEM: Refer to licensing agreement for further details.
!!!YEM: This file must be accompanied by the licensing agreement.
!!!YEM: A copy of the licensing agreement may be found at http://www.music-cog.ohio-state.edu/HumdrumDatabases/Palestrina/license.txt
!!!EMD: converted to Humdrum by Bret Aarden
